X: 1
T: Kilavel Jig
M:6/8
L:1/8
S:Cath Custy, Ennis, Co. Clare
R:Jig
K:G
|:BEE BEE|d2 f edB|BAF FEF|DFA BAF|
BEE BEE|d2 f edB|BAB dAF|FED E3:|
|:Bef gfe|f2 f edB|BAF FEF|DFA BAF|
Bef gfe|f2 f edB|BAB dAF|FED E3:||
